X: 27361
T: Mitton's Breakdown
R: reel
M: 4/4
K: Gminor
bBAB gBAB|bBAB gBAB|AFAc ecAc|BABd =efga|
bBAB gBAB|bBAB gBAB|AFAc ecAc|1 (3BAB dc B4:|2 (3BAB dc B2BB||
BBfB BgBB|fBBg BBfB|AAfA AgAA|fAAg AAfA|
BBfB BbBB|aBBg BBfB|AFAc ecAc|1 (3BAB dc B2BB:|2 (3BAB dc B4||

